X:11
T:Polska ur Petter Dufvas notbok (Ma6-11)
R:Polska
O:Verkelbäck, Småland
B:Petter Dufvas notbok
S:Petter Dufva
N:Smus Ma6 bild 14
Z:Till abc Jonas Brunskog
M:3/4
L:1/8
K:G
ge/f/ g2d2|cA/B/ B2 G2:|GB AA AA|GA/B/ c2 B2|
GB AA AA|GA/B/ c2 B2|dc/B/ cB/A/ BA/G/|AG/F/ G2 G,2|

